hornpipes/bobbycaseys.htmlhornpipes/bobbycaseys.htmlhornpipes/bobbycaseys.htmlhornpipes/bobbycaseys.htmlhornpipes/bobbycaseys.htmlhornpipes/bobbycaseys.htmlhornpipes/bobbycaseys.htmlhornpipes/bobbycaseys.htmlhornpipes/bobbycaseys.html<PRE>T:Cobbler, The
T:Cobbler, The
M:2/4
L:1/8
Q:320
R:polka
D:North Cregg: mi.da:za
Z:Devin McCabe
K:BMin
c|:dB bB|de f>e|dB bB|c/2B/2A/2c/2 e>c|
!dB bB|de f>e|de f/2e/2d|1B2 B>c:|2B2 B2|
!:~f2 ba|fe f>e|dB bB|c/2B/2A/2c/2 e2|
!~f2 ba|fe f>e|de f/2e/2d|1B2 B2:|2B2 B>c||
hornpipes/bobbycaseys.htmlhornpipes/bobbycaseys.htmlhornpipes/bobbycaseys.htmlhornpipes/bobbycaseys.htmlhornpipes/bobbycaseys.htmlhornpipes/bobbycaseys.htmlhornpipes/bobbycaseys.html